!!!OTL: UNTER DEN ROTEN BLUMEN
!!!ARE: Europa, Mitteleuropa, Deutschland
!!!SCT: F0315
!!!YEM: Copyright 1995, estate of Helmut Schaffrath.
**kern
*ICvox
*Ivox
*M3/8
*k[]
*C:
=1
{8.c
16c
8c
=2
4e
8d
=3
4.c
=4
4G
8r}
=5
{8.A
16G
8c
=6
4d
8G
=7
[4.e
=8
8e]
4r}
=9
{8.B
16c
8d
=10
4c
8A
=11
4.B
=12
4G
8r}
=13
{8.c
16B
8A
=14
8.B
16G
8F#
=15
[4.E
=16
4E]
8r}
==
!!!AGN: Jugend - Lied, Trauer
!! Modulation
!!!ONB: ESAC (Essen Associative Code) Database: FINK
!!!AMT: simple triple
!!!AIN: vox
!!!EED: Helmut Schaffrath
!!!EEV: 1.0
*-
